azure-patterns/svg-devops-deploy-cloud.svg

<svg xmlns="http://www.w3.org/2000/svg" viewBox="0 0 80 80">
                                
                            
    <rect width="80" height="80" fill="black" fill-opacity="0"></rect>
    <circle cx="40" cy="40" r="40" fill="#2560E0" fill-opacity="0.05"></circle>
    <path d="M41.8 40.5369V54H39.2V40.5369L36.2141 43.4403L34.3859 41.6506L40.5 35.6648L46.6141 41.6506L44.7859 43.4403L41.8 40.5369ZM54.1703 33.875C55.0234 34.1004 55.8021 34.4517 56.5062 34.929C57.224 35.393 57.8401 35.9498 58.3547 36.5994C58.8828 37.2491 59.2891 37.9716 59.5734 38.767C59.8578 39.5625 60 40.3977 60 41.2727C60 42.3333 59.7969 43.3277 59.3906 44.2557C58.9844 45.1705 58.4224 45.9792 57.7047 46.6818C57.0005 47.3712 56.1745 47.9148 55.2266 48.3125C54.2786 48.7102 53.2698 48.9091 52.2 48.9091H44.4V46.3636H52.2C52.9177 46.3636 53.588 46.2311 54.2109 45.9659C54.8474 45.7008 55.4026 45.3362 55.8766 44.8722C56.3505 44.4081 56.7229 43.8712 56.9938 43.2614C57.2646 42.6383 57.4 41.9754 57.4 41.2727C57.4 40.5436 57.2578 39.8674 56.9734 39.2443C56.7026 38.6212 56.3234 38.0843 55.8359 37.6335C55.3484 37.1828 54.7797 36.8314 54.1297 36.5795C53.4797 36.3144 52.7891 36.1818 52.0578 36.1818C51.8953 35.0947 51.55 34.0871 51.0219 33.1591C50.4937 32.2178 49.8302 31.4091 49.0312 30.733C48.2458 30.0436 47.3453 29.5066 46.3297 29.1222C45.3141 28.7377 44.2375 28.5455 43.1 28.5455C42.0573 28.5455 41.062 28.7112 40.1141 29.0426C39.1797 29.3741 38.3266 29.8314 37.5547 30.4148C36.7828 30.9981 36.1125 31.7008 35.5437 32.5227C34.9885 33.3447 34.5823 34.2396 34.325 35.2074C33.7292 34.7036 33.0724 34.3191 32.3547 34.054C31.637 33.7756 30.8854 33.6364 30.1 33.6364C29.2063 33.6364 28.3599 33.8021 27.5609 34.1335C26.7755 34.465 26.0849 34.9223 25.4891 35.5057C24.9068 36.0758 24.4464 36.7519 24.1078 37.5341C23.7693 38.303 23.6 39.125 23.6 40C23.6 40.875 23.7693 41.7036 24.1078 42.4858C24.4464 43.2547 24.9068 43.9309 25.4891 44.5142C26.0849 45.0843 26.7755 45.535 27.5609 45.8665C28.3599 46.1979 29.2063 46.3636 30.1 46.3636H36.6V48.9091H30.1C28.8406 48.9091 27.6557 48.6771 26.5453 48.2131C25.4484 47.7358 24.487 47.0994 23.6609 46.304C22.8484 45.4953 22.1984 44.554 21.7109 43.4801C21.237 42.393 21 41.233 21 40C21 38.767 21.237 37.6136 21.7109 36.5398C22.1984 35.4527 22.8484 34.5114 23.6609 33.7159C24.487 32.9072 25.4484 32.2708 26.5453 31.8068C27.6557 31.3295 28.8406 31.0909 30.1 31.0909C31.1021 31.0909 32.0974 31.2566 33.0859 31.5881C33.6141 30.7263 34.237 29.9508 34.9547 29.2614C35.6859 28.572 36.4781 27.9886 37.3312 27.5114C38.1979 27.0208 39.1187 26.6496 40.0938 26.3977C41.0688 26.1326 42.0708 26 43.1 26C44.3594 26 45.5646 26.1922 46.7156 26.5767C47.8802 26.9612 48.95 27.5047 49.925 28.2074C50.9 28.8968 51.7531 29.7254 52.4844 30.6932C53.2156 31.6477 53.7776 32.7083 54.1703 33.875Z" fill="#2560E0"></path>
</svg>

<svg xmlns="http://www.w3.org/2000/svg" viewBox="0 0 80 80"><path fill="none" d="M0 0h80v80H0z"/><circle cx="40" cy="40" r="40" fill="#2560E0" fill-opacity=".05"/><path d="M41.8 40.537V54h-2.6V40.537l-2.986 2.903-1.828-1.79 6.114-5.985 6.114 5.986-1.828 1.79-2.986-2.904zm12.37-6.662a7.58 7.58 0 0 1 2.336 1.054 7.604 7.604 0 0 1 1.849 1.67c.528.65.934 1.373 1.218 2.168.285.795.427 1.63.427 2.506 0 1.06-.203 2.055-.61 2.983a7.79 7.79 0 0 1-1.685 2.426 7.838 7.838 0 0 1-2.478 1.63 7.743 7.743 0 0 1-3.027.597h-7.8v-2.545h7.8a5.08 5.08 0 0 0 2.01-.398 5.174 5.174 0 0 0 2.783-2.704c.272-.624.407-1.287.407-1.99 0-.728-.142-1.405-.427-2.028a4.741 4.741 0 0 0-1.137-1.61 5.314 5.314 0 0 0-1.706-1.054 5.433 5.433 0 0 0-2.072-.398 8.637 8.637 0 0 0-1.036-3.023 8.765 8.765 0 0 0-1.99-2.426 8.751 8.751 0 0 0-2.702-1.61 9.045 9.045 0 0 0-3.23-.578 8.982 8.982 0 0 0-2.986.498 9.464 9.464 0 0 0-2.56 1.372 9.136 9.136 0 0 0-2.01 2.108 8.802 8.802 0 0 0-1.219 2.684 6.543 6.543 0 0 0-1.97-1.153 6.18 6.18 0 0 0-2.255-.418c-.894 0-1.74.166-2.54.497a6.6 6.6 0 0 0-2.07 1.373 6.317 6.317 0 0 0-1.382 2.028A6.052 6.052 0 0 0 23.6 40c0 .875.17 1.704.508 2.486a6.62 6.62 0 0 0 1.381 2.028 6.78 6.78 0 0 0 2.072 1.352 6.561 6.561 0 0 0 2.539.498h6.5v2.545h-6.5a9.126 9.126 0 0 1-3.555-.696 9.693 9.693 0 0 1-2.884-1.909 9.467 9.467 0 0 1-1.95-2.824A8.613 8.613 0 0 1 21 40c0-1.233.237-2.386.71-3.46a9.143 9.143 0 0 1 1.95-2.824 9.21 9.21 0 0 1 2.885-1.91 8.905 8.905 0 0 1 3.555-.715c1.002 0 1.997.166 2.986.497a11.658 11.658 0 0 1 1.869-2.327 11.986 11.986 0 0 1 2.376-1.75 11.34 11.34 0 0 1 2.763-1.113A11.406 11.406 0 0 1 43.1 26c1.26 0 2.465.192 3.616.577 1.164.384 2.234.928 3.209 1.63.975.69 1.828 1.518 2.56 2.486a10.921 10.921 0 0 1 1.685 3.182z" fill="#2560E0"/></svg>
